public/assets/images/truck.svg

<svg width="50" height="50" viewBox="0 0 50 50" fill="none" xmlns="http://www.w3.org/2000/svg">
<path d="M17.5297 38.3629C18.3111 37.5815 18.7501 36.5217 18.7501 35.4167C18.7501 34.3116 18.3111 33.2518 17.5297 32.4704C16.7483 31.689 15.6885 31.25 14.5834 31.25C13.4783 31.25 12.4185 31.689 11.6371 32.4704C10.8557 33.2518 10.4167 34.3116 10.4167 35.4167C10.4167 36.5217 10.8557 37.5815 11.6371 38.3629C12.4185 39.1443 13.4783 39.5833 14.5834 39.5833C15.6885 39.5833 16.7483 39.1443 17.5297 38.3629Z" stroke="#FF588A"/>
<path d="M38.363 38.3629C39.1444 37.5815 39.5834 36.5217 39.5834 35.4167C39.5834 34.3116 39.1444 33.2518 38.363 32.4704C37.5816 31.689 36.5218 31.25 35.4167 31.25C34.3117 31.25 33.2519 31.689 32.4705 32.4704C31.6891 33.2518 31.2501 34.3116 31.2501 35.4167C31.2501 36.5217 31.6891 37.5815 32.4705 38.3629C33.2519 39.1443 34.3117 39.5833 35.4167 39.5833C36.5218 39.5833 37.5816 39.1443 38.363 38.3629Z" stroke="#FF588A"/>
<path d="M27.0833 33.3337V12.5003C27.0833 11.9478 26.8638 11.4179 26.4731 11.0272C26.0824 10.6365 25.5525 10.417 25 10.417H8.33333C7.7808 10.417 7.25089 10.6365 6.86019 11.0272C6.46949 11.4179 6.25 11.9478 6.25 12.5003V33.3337C6.25 33.8862 6.46949 34.4161 6.86019 34.8068C7.25089 35.1975 7.7808 35.417 8.33333 35.417H10.4167M27.0833 33.3337C27.0833 33.8862 26.8638 34.4161 26.4731 34.8068C26.0824 35.1975 25.5525 35.417 25 35.417H18.75M27.0833 33.3337V16.667C27.0833 16.1145 27.3028 15.5846 27.6935 15.1939C28.0842 14.8032 28.6141 14.5837 29.1667 14.5837H34.5542C35.1067 14.5838 35.6365 14.8033 36.0271 15.1941L43.1396 22.3066C43.5303 22.6972 43.7499 23.227 43.75 23.7795V33.3337C43.75 33.8862 43.5305 34.4161 43.1398 34.8068C42.7491 35.1975 42.2192 35.417 41.6667 35.417H39.5833M27.0833 33.3337C27.0833 33.8862 27.3028 34.4161 27.6935 34.8068C28.0842 35.1975 28.6141 35.417 29.1667 35.417H31.25M10.4167 35.417C10.4167 36.5221 10.8557 37.5819 11.6371 38.3633C12.4185 39.1447 13.4783 39.5837 14.5833 39.5837C15.6884 39.5837 16.7482 39.1447 17.5296 38.3633C18.311 37.5819 18.75 36.5221 18.75 35.417M10.4167 35.417C10.4167 34.3119 10.8557 33.2521 11.6371 32.4707C12.4185 31.6893 13.4783 31.2503 14.5833 31.2503C15.6884 31.2503 16.7482 31.6893 17.5296 32.4707C18.311 33.2521 18.75 34.3119 18.75 35.417M39.5833 35.417C39.5833 36.5221 39.1443 37.5819 38.3629 38.3633C37.5815 39.1447 36.5217 39.5837 35.4167 39.5837C34.3116 39.5837 33.2518 39.1447 32.4704 38.3633C31.689 37.5819 31.25 36.5221 31.25 35.417M39.5833 35.417C39.5833 34.3119 39.1443 33.2521 38.3629 32.4707C37.5815 31.6893 36.5217 31.2503 35.4167 31.2503C34.3116 31.2503 33.2518 31.6893 32.4704 32.4707C31.689 33.2521 31.25 34.3119 31.25 35.417" stroke="#FF588A" stroke-width="4" stroke-linecap="round" stroke-linejoin="round"/>
</svg>

<svg xmlns="http://www.w3.org/2000/svg" width="50" height="50" fill="none"><path stroke="#FF588A" d="M17.53 38.363a4.167 4.167 0 1 0-5.893-5.893 4.167 4.167 0 0 0 5.893 5.893ZM38.363 38.363a4.167 4.167 0 1 0-5.892-5.893 4.167 4.167 0 0 0 5.892 5.893Z"/><path stroke="#FF588A" stroke-linecap="round" stroke-linejoin="round" stroke-width="4" d="M27.083 33.334V12.5A2.083 2.083 0 0 0 25 10.417H8.333A2.083 2.083 0 0 0 6.25 12.5v20.834a2.083 2.083 0 0 0 2.083 2.083h2.084m16.666-2.083A2.083 2.083 0 0 1 25 35.417h-6.25m8.333-2.083V16.667a2.083 2.083 0 0 1 2.084-2.083h5.387c.553 0 1.082.22 1.473.61l7.113 7.113c.39.39.61.92.61 1.473v9.554a2.083 2.083 0 0 1-2.083 2.083h-2.084m-12.5-2.083a2.083 2.083 0 0 0 2.084 2.083h2.083m-20.833 0a4.167 4.167 0 1 0 8.333 0m-8.333 0a4.167 4.167 0 1 1 8.333 0m20.833 0a4.167 4.167 0 1 1-8.333 0m8.333 0a4.167 4.167 0 1 0-8.333 0"/></svg>
